X:1
T:Suffering Savior
T:D minor                    Alexander Gillet, 1796
T:Transcribed from The Easy Instructor, 1803.
T:Isaac Watts, 1709 (Hymn 9, Book 2)                        86. 86. (C. M.)
%%score [ 1 2 3 4 ]
L:1/8
Q:1/4=80
M:3/4
K:F
V:1 treble nm="Tr." snm="Tr."
V:2 treble nm="C." snm="C."
V:3 treble-8 nm="T." snm="T."
V:4 bass nm="B." snm="B."
V:1
"_1. A–las!  and  did        my  Savior  bleed?  And  did      my      Sove    –    reign  die?  Would he devote  that      sa     –     cred  head  For  such  a   worm        as     I? \n2. Well might the sun   in  darkness  hide,  And  shut    his       glo       –     ries    in,   When God, the mighty    Ma   –      ker,   died  For  man, the crea  –  ture's  sin." D2 | %1
 F4 G2 | A4 fe | (d2 c2) A2 | d4 B2 | (AG A2) DE | (F2 GF) E2 | D6 | F2 D2 F2 | A4 f>e | %10
 (dc d2) A2 | d6 | B2 A2 DE | (F2 GF) E2 | D4 z2 | %15
"_1. For such a   worm           as        I?           Was it for crimes that I had done  He groaned upon    the      tree?  A   –   ma    –   zing      pi     –   ty!       grace     unknown!  And\n2. For man, the crea   –    ture's    sin.         But drops of grief can ne'er repay  The debt of  love     I         owe;  Here,  Lord,       I         give       my   –  self         a  – way;   'Tis" A2 f2 ed | %16
 e4 dc | d6 | z4 d2 | c4 B2 | A4 d2 | c4 B2 | A4 z2 | d2 c2 F2 | (F2 G2) F2 | (F2 E2) A2 | %26
 (DC D2) F2 | (AG A2) f2 | (de f2) ed | ^c4 d2 | %30
"_1. love     be   –   yond        de  –  gree!                  And    love         be   –   yond     de    –    gree!\n2. all       that       I              can    do.                     'Tis      all           that       I          can         do." (A2 D2) DE | %31
 (F2 GF) E2 | (D3 EFB | A4) d>c | (d2 A2) D2 | (3AGF E4 | D6 |] %37
V:2
 A2 | F4 E2 | D4 A2 | B4 A2 | A4 G2 | F4 B2 | A4 A2 | A6 | D2 A2 F2 | E4 DA | B4 A2 | d6 | %12
 G2 A2 A2 | A4 c2 | (A>G F4) | D2 A2 F2 | (c2 B2) A2 | A6 | z4 A2 | F4 B2 | A4 d2 | c4 B2 | A4 z2 | %23
 A2 G2 F2 | (c2 B2) Ad | ^c4 A2 | A4 A2 | A4 D2 | (F2 G2) BA | A4 F2 | (A2 F2) FG | (A2 BA) G2 | %32
 (F3 GAB | A4) F2 | (B2 A2) d2 | (3cBA A4 | A6 |] %37
V:3
"_1. A–las!  and  did        my  Savior  bleed?  And  did      my      Sove    –    reign  die?  Would he devote  that      sa     –     cred  head  For  such  a   worm        as     I? \n2. Well might the sun   in  darkness  hide,  And  shut    his       glo       –     ries    in,   When God, the mighty    Ma   –      ker,   died  For  man, the crea  –  ture's  sin." A2 | %1
 A4 c2 | (d>c d2) f2 | (d2 B2) A2 | A4 d2 | c4 B2 | (A>B c2) (3dcB | d6 | A2 F2 A2 | (D2 E2) A2 | %10
 (f>e d2) dc | d6 | d2 f2 ed | c4 A2 | A4 z2 | %15
"_1. For such a   worm           as        I?           Was it for crimes that I had done  He groaned upon    the      tree?  A   –   ma    –   zing      pi     –   ty!       grace     unknown!  And\n2. For man, the crea   –    ture's    sin.         But drops of grief can ne'er repay  The debt of  love     I         owe;  Here,  Lord,       I         give       my   –  self         a  – way;   'Tis" A2 F2 A2 | %16
 (3AGF E4 | D6 | z4 A2 | A4 G2 | A4 d2 | c4 B2 | A4 z2 | F2 G2 A2 | (F2 E2) D2 | A4 DA | %26
 (AG A2) Ad | (dc d2) fe | d4 gf | e4 f2 | %30
"_1. love     be   –   yond        de  –  gree!                  And    love         be   –   yond     de    –    gree!\n2. all       that       I              can    do.                     'Tis      all           that       I          can         do." A4 Ad | %31
 c4 ^c2 | d6- | d4 A2 | (F>G A2) Ad | (c2 A2) ^c2 | d6 |] %37
V:4
 D,2 | D,4 G,2 | (F,E, D,2) D,2 | G,4 A,2 | D,4 D,2 | F,4 G,2 | [A,,A,]4 A,,2 | D,6 | A,2 F,2 D,2 | %9
 A,,4 D,2 | (D,E, F,2) [A,,A,]2 | [D,D]6 | G,2 A,2 A,2 | (F,>G, A,2) A,,2 | D,6 | D,2 D,2 D,2 | %16
 [A,,A,]4 A,,2 | D,6 | z4 D,2 | F,4 G,2 | [A,,A,]4 [D,D]2 | [C,C]4 [B,,B,]2 | [A,,A,]4 z2 | %23
 D,2 E,2 F,2 | C,4 D,2 | A,,4 D,2 | D,4 D,2 | D,4 [A,,A,]2 | [B,,B,]4 [A,,A,]2 | [A,,A,]4 D,2 | %30
 (D,E, F,2) G,2 | %31
"________________________________________________\nEdited by B. C. Johnston, 2018\n   1. Whole piece changed from 3:2 time to 3:4 time.\n   2. Measure 4, \nTenor\n: first note changed from A to D.\n   3. Measure 20, \nTenor\n: second note changed from A to G.\n   4. These words substituted for the original words." (A,G, F,2) A,,2 | %32
 D,6- | D,4 D,2 | (F,>E, D,2) F,2 | A,,4 A,,2 | D,6 |] %37

